!!!OTL: LOOT ONS NOCH ENS DRENKEN
!!!ARE: Europa, Mitteleuropa, Deutschland, Niederrhein; Westfalen
!!!SCT: E0996
!!!YEM: Copyright 1995, estate of Helmut Schaffrath.
**kern
*ICvox
*Ivox
*M2/4
*k[b-]
*F:
=1
{8f
8g
8a
8b-
=2
4cc
4ff}
=3
{8dd
8dd
8ff
8dd
=4
8dd
8cc
4cc}
=5
{8cc
8b-
8b-
8b-
=6
4a
4cc}
=7
{8g
8f
8g
8a
=8
4f
4r}
==
!!!AGN: Tanz - Lied, Reigen, Kirmes
!!!ONB: ESAC (Essen Associative Code) Database: ERK2
!!!AMT: simple duple
!!!AIN: vox
!!!EED: Helmut Schaffrath
!!!EEV: 1.0
*-
